X:5760
T:Sally Lennon's #2
O:england
R:Jig
M:6/8
L:1/8
K:D
|:E|~F3 FED|FEF F2E|DFA dAF|~E3 GFA|
FEF FED|~F3 F2E|DFA dAF|EFE D2:|
|:gfe ded c|dcB AFA|fed edc|dfb a2g|fed edc|
dcB AFE|DFA dAF|EFE D2:||
